images/50368400.svg

<?xml version="1.0" encoding="UTF-8"?>
<svg xmlns="http://www.w3.org/2000/svg" xmlns:xlink="http://www.w3.org/1999/xlink" width="300pt" height="300pt" viewBox="0 0 300 300" version="1.1">
<defs>
<g>
<symbol overflow="visible" id="glyph0-0">
<path style="stroke:none;" d="M 0.546875 1.9375 L 0.546875 -7.75 L 6.046875 -7.75 L 6.046875 1.9375 Z M 1.171875 1.328125 L 5.4375 1.328125 L 5.4375 -7.140625 L 1.171875 -7.140625 Z M 1.171875 1.328125 "/>
</symbol>
<symbol overflow="visible" id="glyph0-1">
<path style="stroke:none;" d="M 4.328125 -7.28125 C 3.546875 -7.28125 2.921875 -6.984375 2.453125 -6.390625 C 1.992188 -5.804688 1.765625 -5.007812 1.765625 -4 C 1.765625 -2.988281 1.992188 -2.1875 2.453125 -1.59375 C 2.921875 -1.007812 3.546875 -0.71875 4.328125 -0.71875 C 5.117188 -0.71875 5.742188 -1.007812 6.203125 -1.59375 C 6.660156 -2.1875 6.890625 -2.988281 6.890625 -4 C 6.890625 -5.007812 6.660156 -5.804688 6.203125 -6.390625 C 5.742188 -6.984375 5.117188 -7.28125 4.328125 -7.28125 Z M 4.328125 -8.171875 C 5.453125 -8.171875 6.351562 -7.789062 7.03125 -7.03125 C 7.707031 -6.28125 8.046875 -5.269531 8.046875 -4 C 8.046875 -2.738281 7.707031 -1.726562 7.03125 -0.96875 C 6.351562 -0.21875 5.453125 0.15625 4.328125 0.15625 C 3.203125 0.15625 2.300781 -0.21875 1.625 -0.96875 C 0.957031 -1.71875 0.625 -2.726562 0.625 -4 C 0.625 -5.269531 0.957031 -6.28125 1.625 -7.03125 C 2.300781 -7.789062 3.203125 -8.171875 4.328125 -8.171875 Z M 4.328125 -8.171875 "/>
</symbol>
<symbol overflow="visible" id="glyph0-2">
<path style="stroke:none;" d="M 1.078125 -8.015625 L 2.171875 -8.015625 L 2.171875 -4.734375 L 6.109375 -4.734375 L 6.109375 -8.015625 L 7.1875 -8.015625 L 7.1875 0 L 6.109375 0 L 6.109375 -3.8125 L 2.171875 -3.8125 L 2.171875 0 L 1.078125 0 Z M 1.078125 -8.015625 "/>
</symbol>
<symbol overflow="visible" id="glyph0-3">
<path style="stroke:none;" d="M 1.078125 -8.015625 L 2.546875 -8.015625 L 6.09375 -1.3125 L 6.09375 -8.015625 L 7.15625 -8.015625 L 7.15625 0 L 5.6875 0 L 2.125 -6.703125 L 2.125 0 L 1.078125 0 Z M 1.078125 -8.015625 "/>
</symbol>
<symbol overflow="visible" id="glyph1-0">
<path style="stroke:none;" d="M 0.453125 1.59375 L 0.453125 -6.34375 L 4.953125 -6.34375 L 4.953125 1.59375 Z M 0.953125 1.09375 L 4.453125 1.09375 L 4.453125 -5.84375 L 0.953125 -5.84375 Z M 0.953125 1.09375 "/>
</symbol>
<symbol overflow="visible" id="glyph1-1">
<path style="stroke:none;" d="M 1.734375 -0.75 L 4.828125 -0.75 L 4.828125 0 L 0.65625 0 L 0.65625 -0.75 C 1 -1.09375 1.457031 -1.554688 2.03125 -2.140625 C 2.613281 -2.734375 2.984375 -3.113281 3.140625 -3.28125 C 3.421875 -3.601562 3.613281 -3.875 3.71875 -4.09375 C 3.832031 -4.320312 3.890625 -4.539062 3.890625 -4.75 C 3.890625 -5.101562 3.769531 -5.390625 3.53125 -5.609375 C 3.289062 -5.828125 2.972656 -5.9375 2.578125 -5.9375 C 2.296875 -5.9375 2 -5.882812 1.6875 -5.78125 C 1.382812 -5.6875 1.054688 -5.539062 0.703125 -5.34375 L 0.703125 -6.25 C 1.054688 -6.382812 1.390625 -6.488281 1.703125 -6.5625 C 2.015625 -6.644531 2.300781 -6.6875 2.5625 -6.6875 C 3.238281 -6.6875 3.78125 -6.515625 4.1875 -6.171875 C 4.59375 -5.828125 4.796875 -5.375 4.796875 -4.8125 C 4.796875 -4.539062 4.742188 -4.28125 4.640625 -4.03125 C 4.535156 -3.789062 4.351562 -3.507812 4.09375 -3.1875 C 4.019531 -3.101562 3.785156 -2.859375 3.390625 -2.453125 C 2.992188 -2.046875 2.441406 -1.476562 1.734375 -0.75 Z M 1.734375 -0.75 "/>
</symbol>
</g>
</defs>
<g id="surface10577">
<rect x="0" y="0" width="300" height="300" style="fill:rgb(100%,100%,100%);fill-opacity:1;stroke:none;"/>
<path style="fill:none;stroke-width:1.2;stroke-linecap:butt;stroke-linejoin:miter;stroke:rgb(100%,0%,0%);stroke-opacity:1;stroke-miterlimit:10;" d="M 157.808594 135.179688 L 171.175781 136.476562 "/>
<path style="fill:none;stroke-width:1.2;stroke-linecap:butt;stroke-linejoin:miter;stroke:rgb(0%,0%,0%);stroke-opacity:1;stroke-miterlimit:10;" d="M 171.175781 136.476562 L 184.542969 137.773438 "/>
<path style="fill:none;stroke-width:1.2;stroke-linecap:butt;stroke-linejoin:miter;stroke:rgb(0%,0%,0%);stroke-opacity:1;stroke-miterlimit:10;" d="M 142.191406 157.039062 L 150 146.109375 "/>
<path style="fill:none;stroke-width:1.2;stroke-linecap:butt;stroke-linejoin:miter;stroke:rgb(100%,0%,0%);stroke-opacity:1;stroke-miterlimit:10;" d="M 150 146.109375 L 157.808594 135.179688 "/>
<path style=" stroke:none;fill-rule:nonzero;fill:rgb(100%,100%,100%);fill-opacity:1;" d="M 153.808594 128.679688 L 162.808594 128.679688 L 162.808594 141.679688 L 153.808594 141.679688 Z M 153.808594 128.679688 "/>
<g style="fill:rgb(100%,0%,0%);fill-opacity:1;">
  <use xlink:href="#glyph0-1" x="153.808594" y="138.581055"/>
</g>
<path style="fill:none;stroke-width:1.2;stroke-linecap:butt;stroke-linejoin:miter;stroke:rgb(0%,0%,0%);stroke-opacity:1;stroke-miterlimit:10;" d="M 184.542969 137.773438 L 195.664062 162.226562 "/>
<path style="fill:none;stroke-width:1.2;stroke-linecap:butt;stroke-linejoin:miter;stroke:rgb(0%,0%,0%);stroke-opacity:1;stroke-miterlimit:10;" d="M 191.40625 137.601562 L 200.304688 157.164062 "/>
<path style="fill:none;stroke-width:1.2;stroke-linecap:butt;stroke-linejoin:miter;stroke:rgb(0%,0%,0%);stroke-opacity:1;stroke-miterlimit:10;" d="M 200.15625 115.917969 L 184.542969 137.773438 "/>
<path style="fill:none;stroke-width:1.2;stroke-linecap:butt;stroke-linejoin:miter;stroke:rgb(0%,0%,0%);stroke-opacity:1;stroke-miterlimit:10;" d="M 195.664062 162.226562 L 222.398438 164.820312 "/>
<path style="fill:none;stroke-width:1.2;stroke-linecap:butt;stroke-linejoin:miter;stroke:rgb(0%,0%,0%);stroke-opacity:1;stroke-miterlimit:10;" d="M 195.664062 162.226562 L 180.050781 184.082031 "/>
<path style="fill:none;stroke-width:1.2;stroke-linecap:butt;stroke-linejoin:miter;stroke:rgb(0%,0%,0%);stroke-opacity:1;stroke-miterlimit:10;" d="M 222.398438 164.820312 L 238.015625 142.960938 "/>
<path style="fill:none;stroke-width:1.2;stroke-linecap:butt;stroke-linejoin:miter;stroke:rgb(0%,0%,0%);stroke-opacity:1;stroke-miterlimit:10;" d="M 218.820312 158.960938 L 231.308594 141.472656 "/>
<path style="fill:none;stroke-width:1.2;stroke-linecap:butt;stroke-linejoin:miter;stroke:rgb(0%,0%,0%);stroke-opacity:1;stroke-miterlimit:10;" d="M 238.015625 142.960938 L 226.890625 118.511719 "/>
<path style="fill:none;stroke-width:1.2;stroke-linecap:butt;stroke-linejoin:miter;stroke:rgb(0%,0%,0%);stroke-opacity:1;stroke-miterlimit:10;" d="M 238.015625 142.960938 L 264.75 145.554688 "/>
<path style="fill:none;stroke-width:1.2;stroke-linecap:butt;stroke-linejoin:miter;stroke:rgb(0%,0%,0%);stroke-opacity:1;stroke-miterlimit:10;" d="M 226.890625 118.511719 L 200.15625 115.917969 "/>
<path style="fill:none;stroke-width:1.2;stroke-linecap:butt;stroke-linejoin:miter;stroke:rgb(0%,0%,0%);stroke-opacity:1;stroke-miterlimit:10;" d="M 223.609375 124.542969 L 202.21875 122.46875 "/>
<path style="fill:none;stroke-width:1.2;stroke-linecap:butt;stroke-linejoin:miter;stroke:rgb(0%,0%,0%);stroke-opacity:1;stroke-miterlimit:10;" d="M 200.15625 115.917969 L 194.597656 103.691406 "/>
<path style="fill:none;stroke-width:1.2;stroke-linecap:butt;stroke-linejoin:miter;stroke:rgb(0%,0%,100%);stroke-opacity:1;stroke-miterlimit:10;" d="M 194.597656 103.691406 L 189.035156 91.46875 "/>
<path style=" stroke:none;fill-rule:nonzero;fill:rgb(100%,100%,100%);fill-opacity:1;" d="M 167.035156 82.96875 L 189.035156 82.96875 L 189.035156 99.96875 L 167.035156 99.96875 Z M 167.035156 82.96875 "/>
<g style="fill:rgb(0%,0%,100%);fill-opacity:1;">
  <use xlink:href="#glyph0-2" x="167.035156" y="92.870117"/>
</g>
<g style="fill:rgb(0%,0%,100%);fill-opacity:1;">
  <use xlink:href="#glyph1-1" x="175.05957" y="97.75293"/>
</g>
<g style="fill:rgb(0%,0%,100%);fill-opacity:1;">
  <use xlink:href="#glyph0-3" x="180.71582" y="92.870117"/>
</g>
<path style="fill:none;stroke-width:1.2;stroke-linecap:butt;stroke-linejoin:miter;stroke:rgb(0%,0%,0%);stroke-opacity:1;stroke-miterlimit:10;" d="M 177.175781 185.390625 L 182.734375 197.617188 "/>
<path style="fill:none;stroke-width:1.2;stroke-linecap:butt;stroke-linejoin:miter;stroke:rgb(100%,0%,0%);stroke-opacity:1;stroke-miterlimit:10;" d="M 182.734375 197.617188 L 188.296875 209.839844 "/>
<path style="fill:none;stroke-width:1.2;stroke-linecap:butt;stroke-linejoin:miter;stroke:rgb(0%,0%,0%);stroke-opacity:1;stroke-miterlimit:10;" d="M 182.925781 182.773438 L 188.488281 195 "/>
<path style="fill:none;stroke-width:1.2;stroke-linecap:butt;stroke-linejoin:miter;stroke:rgb(100%,0%,0%);stroke-opacity:1;stroke-miterlimit:10;" d="M 188.488281 195 L 194.046875 207.222656 "/>
<path style="fill:none;stroke-width:1.2;stroke-linecap:butt;stroke-linejoin:miter;stroke:rgb(0%,0%,0%);stroke-opacity:1;stroke-miterlimit:10;" d="M 180.050781 184.082031 L 153.316406 181.488281 "/>
<path style=" stroke:none;fill-rule:nonzero;fill:rgb(100%,100%,100%);fill-opacity:1;" d="M 187.171875 202.03125 L 196.171875 202.03125 L 196.171875 215.03125 L 187.171875 215.03125 Z M 187.171875 202.03125 "/>
<g style="fill:rgb(100%,0%,0%);fill-opacity:1;">
  <use xlink:href="#glyph0-1" x="187.171875" y="211.932617"/>
</g>
<path style="fill:none;stroke-width:1.2;stroke-linecap:butt;stroke-linejoin:miter;stroke:rgb(0%,0%,0%);stroke-opacity:1;stroke-miterlimit:10;" d="M 153.316406 181.488281 L 145.507812 192.417969 "/>
<path style="fill:none;stroke-width:1.2;stroke-linecap:butt;stroke-linejoin:miter;stroke:rgb(100%,0%,0%);stroke-opacity:1;stroke-miterlimit:10;" d="M 145.507812 192.417969 L 137.699219 203.347656 "/>
<path style="fill:none;stroke-width:1.2;stroke-linecap:butt;stroke-linejoin:miter;stroke:rgb(0%,0%,0%);stroke-opacity:1;stroke-miterlimit:10;" d="M 153.316406 181.488281 L 142.191406 157.039062 "/>
<path style="fill:none;stroke-width:1.2;stroke-linecap:butt;stroke-linejoin:miter;stroke:rgb(0%,0%,0%);stroke-opacity:1;stroke-miterlimit:10;" d="M 157.957031 176.425781 L 149.058594 156.867188 "/>
<path style=" stroke:none;fill-rule:nonzero;fill:rgb(100%,100%,100%);fill-opacity:1;" d="M 120.699219 196.847656 L 137.699219 196.847656 L 137.699219 209.847656 L 120.699219 209.847656 Z M 120.699219 196.847656 "/>
<g style="fill:rgb(100%,0%,0%);fill-opacity:1;">
  <use xlink:href="#glyph0-2" x="120.699219" y="206.749023"/>
  <use xlink:href="#glyph0-1" x="128.723633" y="206.749023"/>
</g>
<path style="fill:none;stroke-width:1.2;stroke-linecap:butt;stroke-linejoin:miter;stroke:rgb(0%,0%,0%);stroke-opacity:1;stroke-miterlimit:10;" d="M 142.191406 157.039062 L 115.457031 154.445312 "/>
<path style="fill:none;stroke-width:1.2;stroke-linecap:butt;stroke-linejoin:miter;stroke:rgb(0%,0%,0%);stroke-opacity:1;stroke-miterlimit:10;" d="M 115.457031 154.445312 L 104.335938 129.992188 "/>
<path style="fill:none;stroke-width:1.2;stroke-linecap:butt;stroke-linejoin:miter;stroke:rgb(0%,0%,0%);stroke-opacity:1;stroke-miterlimit:10;" d="M 108.59375 154.617188 L 99.695312 135.054688 "/>
<path style="fill:none;stroke-width:1.2;stroke-linecap:butt;stroke-linejoin:miter;stroke:rgb(0%,0%,0%);stroke-opacity:1;stroke-miterlimit:10;" d="M 99.84375 176.300781 L 115.457031 154.445312 "/>
<path style="fill:none;stroke-width:1.2;stroke-linecap:butt;stroke-linejoin:miter;stroke:rgb(0%,0%,0%);stroke-opacity:1;stroke-miterlimit:10;" d="M 104.335938 129.992188 L 77.601562 127.398438 "/>
<path style="fill:none;stroke-width:1.2;stroke-linecap:butt;stroke-linejoin:miter;stroke:rgb(0%,0%,0%);stroke-opacity:1;stroke-miterlimit:10;" d="M 77.601562 127.398438 L 72.039062 115.175781 "/>
<path style="fill:none;stroke-width:1.2;stroke-linecap:butt;stroke-linejoin:miter;stroke:rgb(100%,0%,0%);stroke-opacity:1;stroke-miterlimit:10;" d="M 72.039062 115.175781 L 66.476562 102.949219 "/>
<path style="fill:none;stroke-width:1.2;stroke-linecap:butt;stroke-linejoin:miter;stroke:rgb(0%,0%,0%);stroke-opacity:1;stroke-miterlimit:10;" d="M 77.601562 127.398438 L 61.984375 149.257812 "/>
<path style="fill:none;stroke-width:1.2;stroke-linecap:butt;stroke-linejoin:miter;stroke:rgb(0%,0%,0%);stroke-opacity:1;stroke-miterlimit:10;" d="M 81.179688 133.257812 L 68.691406 150.746094 "/>
<path style=" stroke:none;fill-rule:nonzero;fill:rgb(100%,100%,100%);fill-opacity:1;" d="M 49.476562 96.449219 L 66.476562 96.449219 L 66.476562 109.449219 L 49.476562 109.449219 Z M 49.476562 96.449219 "/>
<g style="fill:rgb(100%,0%,0%);fill-opacity:1;">
  <use xlink:href="#glyph0-2" x="49.476562" y="106.350586"/>
  <use xlink:href="#glyph0-1" x="57.500977" y="106.350586"/>
</g>
<path style="fill:none;stroke-width:1.2;stroke-linecap:butt;stroke-linejoin:miter;stroke:rgb(0%,0%,0%);stroke-opacity:1;stroke-miterlimit:10;" d="M 61.984375 149.257812 L 48.617188 147.960938 "/>
<path style="fill:none;stroke-width:1.2;stroke-linecap:butt;stroke-linejoin:miter;stroke:rgb(100%,0%,0%);stroke-opacity:1;stroke-miterlimit:10;" d="M 48.617188 147.960938 L 35.25 146.664062 "/>
<path style="fill:none;stroke-width:1.2;stroke-linecap:butt;stroke-linejoin:miter;stroke:rgb(0%,0%,0%);stroke-opacity:1;stroke-miterlimit:10;" d="M 61.984375 149.257812 L 73.109375 173.707031 "/>
<path style=" stroke:none;fill-rule:nonzero;fill:rgb(100%,100%,100%);fill-opacity:1;" d="M 18.25 140.164062 L 35.25 140.164062 L 35.25 153.164062 L 18.25 153.164062 Z M 18.25 140.164062 "/>
<g style="fill:rgb(100%,0%,0%);fill-opacity:1;">
  <use xlink:href="#glyph0-2" x="18.25" y="150.06543"/>
  <use xlink:href="#glyph0-1" x="26.274414" y="150.06543"/>
</g>
<path style="fill:none;stroke-width:1.2;stroke-linecap:butt;stroke-linejoin:miter;stroke:rgb(0%,0%,0%);stroke-opacity:1;stroke-miterlimit:10;" d="M 73.109375 173.707031 L 99.84375 176.300781 "/>
<path style="fill:none;stroke-width:1.2;stroke-linecap:butt;stroke-linejoin:miter;stroke:rgb(0%,0%,0%);stroke-opacity:1;stroke-miterlimit:10;" d="M 76.390625 167.675781 L 97.78125 169.75 "/>
</g>
</svg>

<svg xmlns="http://www.w3.org/2000/svg" xmlns:xlink="http://www.w3.org/1999/xlink" width="300pt" height="300pt" viewBox="0 0 300 300"><defs><symbol overflow="visible"><path d="M.547 1.938V-7.75h5.5v9.688zm.625-.61h4.266v-8.47H1.171zm0 0"/></symbol><symbol overflow="visible" id="a"><path d="M4.328-7.28c-.78 0-1.406.296-1.875.89-.46.585-.687 1.382-.687 2.39 0 1.012.226 1.813.687 2.406.47.586 1.094.875 1.875.875.79 0 1.414-.288 1.875-.874.457-.593.688-1.394.688-2.406 0-1.008-.23-1.805-.687-2.39-.46-.594-1.086-.89-1.875-.89zm0-.892c1.125 0 2.024.383 2.703 1.14C7.708-6.28 8.048-5.27 8.048-4c0 1.262-.34 2.273-1.016 3.03C6.353-.22 5.454.157 4.33.157S2.3-.22 1.625-.97c-.668-.75-1-1.757-1-3.03 0-1.27.332-2.28 1-3.03.676-.76 1.578-1.142 2.703-1.142zm0 0"/></symbol><symbol overflow="visible" id="b"><path d="M1.078-8.016h1.094v3.282H6.11v-3.282h1.077V0H6.11v-3.813H2.17V0H1.078zm0 0"/></symbol><symbol overflow="visible" id="d"><path d="M1.078-8.016h1.47l3.546 6.704v-6.704h1.062V0H5.688L2.124-6.703V0H1.078zm0 0"/></symbol><symbol overflow="visible"><path d="M.453 1.594v-7.938h4.5v7.938zm.5-.5h3.5v-6.938h-3.5zm0 0"/></symbol><symbol overflow="visible" id="c"><path d="M1.734-.75h3.094V0H.656v-.75c.344-.344.8-.805 1.375-1.39.583-.594.954-.973 1.11-1.14.282-.322.473-.595.58-.814.112-.226.17-.445.17-.656 0-.352-.12-.64-.36-.86-.24-.218-.557-.327-.952-.327-.28 0-.578.054-.89.156-.305.093-.633.24-.985.436v-.906c.352-.133.688-.238 1-.313.313-.082.598-.125.86-.125.675 0 1.218.172 1.624.516.407.344.61.797.61 1.36 0 .273-.055.53-.156.78-.105.243-.288.524-.546.845-.074.085-.31.328-.703.734-.398.406-.95.976-1.656 1.703zm0 0"/></symbol></defs><g><path fill="#fff" d="M0 0h300v300H0z"/><path d="M157.81 135.18l13.366 1.297" stroke-width="1.2" stroke="#f00" stroke-miterlimit="10" fill="none"/><path d="M171.176 136.477l13.367 1.296M142.19 157.04l7.81-10.93" stroke-width="1.2" stroke="#000" stroke-miterlimit="10" fill="none"/><path d="M150 146.11l7.81-10.93" stroke-width="1.2" stroke="#f00" stroke-miterlimit="10" fill="none"/><path d="M153.81 128.68h9v13h-9zm0 0" fill="#fff"/><use xlink:href="#a" x="153.809" y="138.581" fill="#f00"/><path d="M184.543 137.773l11.12 24.454M191.406 137.602l8.9 19.562M200.156 115.918l-15.613 21.855M195.664 162.227l26.734 2.593M195.664 162.227l-15.613 21.855M222.398 164.82l15.618-21.86M218.82 158.96l12.49-17.487M238.016 142.96l-11.125-24.448M238.016 142.96l26.734 2.595M226.89 118.512l-26.734-2.594M223.61 124.543l-21.39-2.074M200.156 115.918l-5.558-12.227" stroke-width="1.2" stroke="#000" stroke-miterlimit="10" fill="none"/><path d="M194.598 103.69l-5.563-12.22" stroke-width="1.2" stroke="#00f" stroke-miterlimit="10" fill="none"/><path d="M167.035 82.97h22v17h-22zm0 0" fill="#fff"/><use xlink:href="#b" x="167.035" y="92.87" fill="#00f"/><use xlink:href="#c" x="175.06" y="97.753" fill="#00f"/><use xlink:href="#d" x="180.716" y="92.87" fill="#00f"/><path d="M177.176 185.39l5.558 12.227" stroke-width="1.2" stroke="#000" stroke-miterlimit="10" fill="none"/><path d="M182.734 197.617l5.563 12.223" stroke-width="1.2" stroke="#f00" stroke-miterlimit="10" fill="none"/><path d="M182.926 182.773L188.488 195" stroke-width="1.2" stroke="#000" stroke-miterlimit="10" fill="none"/><path d="M188.488 195l5.56 12.223" stroke-width="1.2" stroke="#f00" stroke-miterlimit="10" fill="none"/><path d="M180.05 184.082l-26.734-2.594" stroke-width="1.2" stroke="#000" stroke-miterlimit="10" fill="none"/><path d="M187.172 202.03h9v13h-9zm0 0" fill="#fff"/><use xlink:href="#a" x="187.172" y="211.933" fill="#f00"/><path d="M153.316 181.488l-7.808 10.93" stroke-width="1.2" stroke="#000" stroke-miterlimit="10" fill="none"/><path d="M145.508 192.418l-7.81 10.93" stroke-width="1.2" stroke="#f00" stroke-miterlimit="10" fill="none"/><path d="M153.316 181.488l-11.125-24.45M157.957 176.426l-8.898-19.56" stroke-width="1.2" stroke="#000" stroke-miterlimit="10" fill="none"/><path d="M120.7 196.848h17v13h-17zm0 0" fill="#fff"/><g fill="#f00"><use xlink:href="#b" x="120.699" y="206.749"/><use xlink:href="#a" x="128.724" y="206.749"/></g><path d="M142.19 157.04l-26.733-2.595M115.457 154.445l-11.12-24.453M108.594 154.617l-8.9-19.562M99.844 176.3l15.613-21.855M104.336 129.992l-26.734-2.594M77.602 127.398l-5.563-12.222" stroke-width="1.2" stroke="#000" stroke-miterlimit="10" fill="none"/><path d="M72.04 115.176l-5.563-12.227" stroke-width="1.2" stroke="#f00" stroke-miterlimit="10" fill="none"/><path d="M77.602 127.398l-15.618 21.86M81.18 133.258l-12.49 17.488" stroke-width="1.2" stroke="#000" stroke-miterlimit="10" fill="none"/><path d="M49.477 96.45h17v13h-17zm0 0" fill="#fff"/><g fill="#f00"><use xlink:href="#b" x="49.477" y="106.351"/><use xlink:href="#a" x="57.501" y="106.351"/></g><path d="M61.984 149.258l-13.367-1.297" stroke-width="1.2" stroke="#000" stroke-miterlimit="10" fill="none"/><path d="M48.617 147.96l-13.367-1.296" stroke-width="1.2" stroke="#f00" stroke-miterlimit="10" fill="none"/><path d="M61.984 149.258l11.125 24.45" stroke-width="1.2" stroke="#000" stroke-miterlimit="10" fill="none"/><path d="M18.25 140.164h17v13h-17zm0 0" fill="#fff"/><g fill="#f00"><use xlink:href="#b" x="18.25" y="150.065"/><use xlink:href="#a" x="26.274" y="150.065"/></g><path d="M73.11 173.707l26.734 2.594M76.39 167.676l21.39 2.074" stroke-width="1.2" stroke="#000" stroke-miterlimit="10" fill="none"/></g></svg>
